X: 2654
T:Mumbo Grumbo. HSJJ.101
M:2/4
L:1/8
Q:220
S:HSJ Jackson,Wyresdale,Lancs.1823
R:Misc.
O:England
A:Lancashire
H:1823
Z:Chris Partington.
K:Bb
F|BB/-A/ Bd|cc/-B/ ce|dBGc|BAGF|BB/-A/ Bd|cc/-B/ ce|dg fA|B3:|!
|:F|edec|dcdc|GccB|BAGF|e2c2|d2B2|GBAc|B2:|]
